X: 1546
T: Home Sweet Home Schottische
C:Sir Henry Rowley Bishop (1787-1856)
B: australian traditional tunes wiki
M:4/4
L:1/8
R: Schottische
Q: 1/4=100
K:G
V:1 
G>A|"G"B>BB2"C"c>Bc2|"G"d>d d<dB2d>B|"D7"c2-c>Bc2A2 |"G"G>A B>cd2G>A|
B>BB2"C"c>Bc2|"G"d>d d<dB2d>B|"D7"c2-c>B c<BA2|"G"G4z2B<d|
"G"g>gg2"D7"f2"C"e2|"G"d>d d<dB2d2|"D7"c>c c>Bc2A2|"G"G>A B>cd2(3def|
"G"g2g2"D7"f2"C"e2|"G"d>d d<dB2d>B|"D7"c2-c>Bc2A2|"G"G6:||
% abcbook-tune_id 6342d53a281164582dc62de2


% abcbook-boost 0
% abcbook-tablature 
% abcbook-transpose 
% abcbook-lastupdated 1665324370406
% abcbook-soundfonts 
% abcbook-repeats 1
% NFF Book 2022
% Bush Traditions recording played by Ray Mulligan

